app/assets/svg/project-logos/design-kollective.svg

<svg xmlns="http://www.w3.org/2000/svg" viewBox="0 0 391.6 75.6"><style>.st0{fill:#fff;}</style><path class="st0" d="M53.6 75.5H52c-.4 0-.8-.4-.8-.8V.8c0-.4.4-.8.8-.8h1.6c.4 0 .8.4.8.8v73.9c0 .5-.4.8-.8.8zM3.1 68.4V8.2c0-.2-.1-.5-.3-.6L1.3 6.4C.8 6 0 6.3 0 7v62.7c0 .7.8 1 1.3.6l1.6-1.2c.1-.2.2-.4.2-.7zM12.1 61.3V15.1c0-.2-.1-.5-.3-.6l-1.6-1.2c-.5-.4-1.3 0-1.3.6v48.7c0 .7.8 1 1.3.6l1.6-1.2c.2-.2.3-.4.3-.7zM21.1 54.2V21.9c0-.2-.1-.5-.3-.6l-1.6-1.2c-.5-.4-1.3 0-1.3.6v34.7c0 .7.8 1 1.3.6l1.6-1.2c.1-.1.3-.4.3-.6zM30 47.1V28.8c0-.2-.1-.5-.3-.6L28.1 27c-.5-.4-1.3 0-1.3.6v20.7c0 .7.8 1 1.3.6l1.6-1.2c.2-.2.3-.4.3-.6zM39 39.9v-4.3c0-.2-.1-.5-.3-.6l-1.6-1.2c-.5-.4-1.3 0-1.3.6v6.7c0 .7.8 1 1.3.6l1.6-1.2c.2-.1.3-.3.3-.6z"/><g><path class="st0" d="M46.5 33.3L5.2.2C5.1.1 4.9 0 4.7 0H2.2c-.7 0-1.1.9-.5 1.4l43.8 35.1c.5.4 1.3 0 1.3-.6v-2c0-.2-.1-.5-.3-.6zM46.5 24.1L16.6.2c-.1-.1-.3-.2-.5-.2h-2.5c-.8 0-1.1.9-.5 1.4l32.3 25.9c.5.4 1.3 0 1.3-.6v-2c.1-.3 0-.5-.2-.6zM46.5 14L29.3.2c-.2-.1-.3-.2-.5-.2h-2.5c-.8 0-1.1.9-.5 1.4l19.7 15.8c.5.4 1.3 0 1.3-.6v-2c0-.3-.1-.5-.3-.6zM46.5 4.3L41.4.2c-.2-.1-.4-.2-.5-.2h-2.5c-.8 0-1.1.9-.5 1.4l7.6 6.1c.5.4 1.3 0 1.3-.6v-2c0-.2-.1-.5-.3-.6z"/></g><g><path class="st0" d="M46.5 42.3L5.2 75.4c-.1.1-.3.2-.5.2H2.2c-.8 0-1.1-.9-.5-1.4l43.8-35.1c.5-.4 1.3 0 1.3.6v2c0 .2-.1.4-.3.6zM46.5 51.5L16.6 75.4c-.1.1-.3.2-.5.2h-2.5c-.8 0-1.1-.9-.5-1.4l32.3-25.9c.5-.4 1.3 0 1.3.6v2c.1.2 0 .5-.2.6zM46.5 61.6L29.3 75.4c-.1.1-.3.2-.5.2h-2.5c-.8 0-1.1-.9-.5-1.4l19.7-15.8c.5-.4 1.3 0 1.3.6v2c0 .2-.1.5-.3.6zM46.5 71.3l-5.1 4.1c-.1.1-.3.2-.5.2h-2.5c-.8 0-1.1-.9-.5-1.4l7.6-6.1c.5-.4 1.3 0 1.3.6v2c0 .2-.1.4-.3.6z"/></g><g><path class="st0" d="M102.4 68.4V8.2c0-.2.1-.5.3-.6l1.6-1.2c.5-.4 1.3 0 1.3.6v62.7c0 .7-.8 1-1.3.6l-1.6-1.2c-.1-.2-.3-.4-.3-.7zM93.5 61.3V15.1c0-.2.1-.5.3-.6l1.6-1.2c.5-.4 1.3 0 1.3.6v48.7c0 .7-.8 1-1.3.6L93.8 62c-.2-.2-.3-.4-.3-.7zM84.5 54.2V21.9c0-.2.1-.5.3-.6l1.6-1.2c.5-.4 1.3 0 1.3.6v34.7c0 .7-.8 1-1.3.6l-1.6-1.2c-.2-.1-.3-.4-.3-.6zM75.6 47.1V28.8c0-.2.1-.5.3-.6l1.6-1.2c.5-.4 1.3 0 1.3.6v20.7c0 .7-.8 1-1.3.6l-1.6-1.2c-.2-.2-.3-.4-.3-.6zM66.6 39.9v-4.3c0-.2.1-.5.3-.6l1.6-1.2c.5-.4 1.3 0 1.3.6v6.7c0 .7-.8 1-1.3.6l-1.6-1.2c-.2-.1-.3-.3-.3-.6z"/><g><path class="st0" d="M59.1 33.3L100.4.2c.1-.1.3-.2.5-.2h2.5c.8 0 1.1.9.5 1.4L60.1 36.5c-.5.4-1.3 0-1.3-.6v-2c0-.2.1-.5.3-.6zM59.1 24.1L89 .2c.1-.1.3-.2.4-.2h2.5c.8 0 1.1.9.5 1.4L60.1 27.3c-.5.4-1.3 0-1.3-.6v-2c0-.3.1-.5.3-.6zM59.1 14L76.3.2c.2-.1.3-.2.5-.2h2.5c.8 0 1.1.9.5 1.4L60.1 17.2c-.5.4-1.3 0-1.3-.6v-2c0-.3.1-.5.3-.6zM59.1 4.3L64.2.2c.2-.1.3-.2.5-.2h2.5c.8 0 1.1.9.5 1.4l-7.6 6.1c-.5.4-1.3 0-1.3-.6v-2c0-.2.1-.5.3-.6z"/></g><g><path class="st0" d="M59.1 42.3l41.3 33.1c.1.1.3.2.5.2h2.5c.8 0 1.1-.9.5-1.4L60.1 39.1c-.5-.4-1.3 0-1.3.6v2c0 .2.1.4.3.6zM59.1 51.5L89 75.4c.1.1.3.2.5.2H92c.8 0 1.1-.9.5-1.4L60.1 48.3c-.5-.4-1.3 0-1.3.6v2c0 .2.1.5.3.6zM59.1 61.6l17.2 13.8c.1.1.3.2.5.2h2.5c.8 0 1.1-.9.5-1.4L60.1 58.4c-.5-.4-1.3 0-1.3.6v2c0 .2.1.5.3.6zM59.1 71.3l5.1 4.1c.1.1.3.2.5.2h2.5c.8 0 1.1-.9.5-1.4l-7.6-6.1c-.5-.4-1.3 0-1.3.6v2c0 .2.1.4.3.6z"/></g></g><g><path class="st0" d="M130.4 24.4c0-.3.3-.7.6-.7h8c6.7 0 12.2 5.5 12.2 12.2 0 6.8-5.5 12.2-12.2 12.2h-8c-.3 0-.6-.3-.6-.7v-23zm8.2 20.5c5.1 0 8.7-3.8 8.7-8.9 0-5.1-3.6-8.9-8.7-8.9h-4.7v17.8h4.7zM162.6 31.7c4.2 0 7.4 3.1 7.4 7.4 0 .3 0 .8-.1 1.1 0 .4-.4.7-.7.7H158c0 2.2 2 4.4 4.8 4.4 1.8 0 3-.7 3.9-1.4.3-.2.7-.3.9.1l.9 1.5c.3.3.4.7-.1 1.1-1.2 1-3.3 2-6 2-4.9 0-8.1-3.8-8.1-8.4.3-4.6 3.5-8.5 8.3-8.5zm3.9 6.6c-.1-2-1.6-3.7-4-3.7-2.5 0-4.1 1.6-4.3 3.7h8.3zM173.1 46.9c-.2-.2-.5-.5-.3-.8l.7-1.5c.2-.3.6-.5 1-.2.9.5 2.1 1.2 4 1.2 1.4 0 2.1-.7 2.1-1.6 0-1.1-1.2-1.8-3.5-2.8-2.5-1.1-4.4-2.4-4.4-5.1 0-2 1.4-4.4 5.3-4.4 2.2 0 3.9.7 4.7 1.2.4.3.6.8.3 1.2l-.6 1.1c-.2.5-.7.5-1 .3-1.1-.5-2.2-.8-3.5-.8-1.4 0-2.1.7-2.1 1.4 0 1 1.2 1.7 2.8 2.4 3 1.3 5.2 2.3 5.2 5.3 0 2.5-2.2 4.7-5.7 4.7-2.2.1-4.1-1-5-1.6zM187.5 26.3c0-1.3 1-2.4 2.3-2.4 1.3 0 2.4 1 2.4 2.4 0 1.3-1 2.3-2.4 2.3-1.3 0-2.3-1-2.3-2.3zm.5 6.5c0-.4.3-.8.8-.8h2c.4 0 .8.4.8.8v14.6c0 .4-.4.8-.8.8h-2c-.4 0-.8-.3-.8-.8V32.8zM211 48.3c0 5-3.2 7.5-7.5 7.5-2.7 0-4.9-1.3-5.6-2-.3-.2-.3-.7-.2-.9l.8-1.5c.2-.4.7-.6 1.1-.2.6.5 1.9 1.5 3.8 1.5 2.1 0 4-1 4-4.3v-.9c-.3.2-2 1.1-4.1 1.1-4.4 0-7.8-3.7-7.8-8.4 0-4.6 3.2-8.4 7.6-8.4 3 0 4.8 1.6 5.1 1.9l.4-1c.1-.3.2-.6.6-.6h.9c.4 0 .8.4.8.8v15.4zm-7.2-3.1c2.1 0 3.7-1.3 3.7-1.3v-6.7c-.3-.6-1.7-2.3-3.9-2.3-2.8 0-4.6 2.4-4.6 5.1.1 2.9 2.2 5.2 4.8 5.2zM216.1 32.8c0-.4.3-.8.8-.8h.8c.3 0 .6.2.7.5l.5 1.4c.3-.4 2.2-2.2 5.4-2.2 4.9 0 6.2 3.4 6.2 7.6v8.1c0 .4-.4.8-.8.8h-2c-.4 0-.8-.3-.8-.8v-8.2c0-2.6-1.1-4.1-3.2-4.1-2.5 0-4 1.8-4.3 2.3v10c0 .5-.3.8-.9.8h-1.8c-.4 0-.8-.3-.8-.8V32.8zM244.6 24.6c0-.5.3-.8.8-.8h2c.5 0 .8.4.8.8v9.7l9.8-10.1c.1-.2.4-.3.7-.3h2.6c.6 0 1 .7.5 1.3l-10.1 10.2L262.5 47c.3.3.1 1.2-.6 1.2h-2.8c-.3 0-.6-.1-.6-.2l-10.1-11.4v10.8c0 .5-.4.8-.8.8h-2c-.5 0-.8-.4-.8-.8V24.6zM272.9 31.7c4.5 0 8.2 3.8 8.2 8.4 0 4.6-3.7 8.5-8.2 8.5-4.5 0-8.2-3.9-8.2-8.5 0-4.5 3.7-8.4 8.2-8.4zm0 13.5c2.7 0 4.8-2.2 4.8-5.2 0-2.9-2.1-5.1-4.8-5.1-2.7 0-4.8 2.2-4.8 5.1 0 3 2.1 5.2 4.8 5.2zM285.2 24.5c0-.4.3-.8.8-.8h2c.4 0 .8.4.8.8v22.9c0 .4-.4.8-.8.8h-2c-.4 0-.8-.3-.8-.8V24.5zM294 24.5c0-.4.3-.8.8-.8h2c.4 0 .8.4.8.8v22.9c0 .4-.4.8-.8.8h-2c-.4 0-.8-.3-.8-.8V24.5zM309.7 31.7c4.2 0 7.4 3.1 7.4 7.4 0 .3 0 .8-.1 1.1 0 .4-.4.7-.7.7h-11.1c0 2.2 2 4.4 4.8 4.4 1.8 0 3-.7 3.9-1.4.3-.2.7-.3.9.1l.9 1.5c.3.3.4.7-.1 1.1-1.2 1-3.3 2-6 2-4.9 0-8.1-3.8-8.1-8.4.2-4.6 3.3-8.5 8.2-8.5zm3.9 6.6c-.1-2-1.6-3.7-4-3.7-2.5 0-4.1 1.6-4.3 3.7h8.3zM328.1 31.7c2.5 0 4.4.9 5.9 2.8.3.4.2.8-.1 1.1l-1.3 1.2c-.5.4-.8.1-1-.2-.7-.8-2-1.6-3.3-1.6-2.8 0-4.9 2.2-4.9 5.1 0 2.9 2.1 5.1 4.8 5.1 2.1 0 2.9-1.2 3.8-2 .3-.3.7-.3 1.1-.1l1.1.9c.4.3.6.7.3 1.1-1.3 2-3.5 3.3-6.3 3.3-4.5 0-8.2-3.6-8.2-8.4-.1-4.6 3.6-8.3 8.1-8.3zM339.3 35h-1.8c-.5 0-.8-.4-.8-.8v-1.4c0-.5.3-.8.8-.8h1.8v-4.5c0-.4.3-.8.8-.8h2c.4 0 .7.3.7.8V32h4.3c.4 0 .8.3.8.8v1.4c0 .4-.3.8-.8.8h-4.3v8.6c0 1.4.5 1.6 1.3 1.6 1 0 2-.4 2.6-.8.5-.3.8 0 .9.3l.6 1.6c.2.4 0 .7-.4.9-.7.4-2.5 1.1-4.5 1.1-3.2 0-4.1-2-4.1-4.8V35zM351 26.3c0-1.3 1-2.4 2.3-2.4 1.3 0 2.4 1 2.4 2.4 0 1.3-1 2.3-2.4 2.3-1.2 0-2.3-1-2.3-2.3zm.6 6.5c0-.4.3-.8.8-.8h2c.4 0 .8.4.8.8v14.6c0 .4-.4.8-.8.8h-2c-.4 0-.8-.3-.8-.8V32.8zM358.4 33c-.3-.5 0-.9.6-.9h2.1c.4 0 .6.2.7.5l4.3 9.9h.1l4.5-9.9c.2-.5.6-.5 1.1-.5h1.6c.6 0 .9.4.6.9l-7 15.2c-.1.2-.3.4-.7.4h-.2c-.3 0-.6-.2-.7-.4l-7-15.2zM384.3 31.7c4.2 0 7.4 3.1 7.4 7.4 0 .3 0 .8-.1 1.1 0 .4-.4.7-.7.7h-11.1c0 2.2 2 4.4 4.8 4.4 1.8 0 3-.7 3.9-1.4.3-.2.7-.3.9.1l.9 1.5c.3.3.4.7-.1 1.1-1.2 1-3.3 2-6 2-4.9 0-8.1-3.8-8.1-8.4.1-4.6 3.3-8.5 8.2-8.5zm3.9 6.6c-.1-2-1.6-3.7-4-3.7-2.5 0-4.1 1.6-4.3 3.7h8.3z"/></g></svg>

<svg viewBox="0 0 392 76" fill="none" xmlns="http://www.w3.org/2000/svg">
  <g class="hover">
    <path d="M53.6 75.5H52C51.6 75.5 51.2 75.1 51.2 74.7V0.8C51.2 0.4 51.6 0 52 0H53.6C54 0 54.4 0.4 54.4 0.8V74.7C54.4 75.2 54 75.5 53.6 75.5ZM3.1 68.4V8.2C3.1 8 3 7.7 2.8 7.6L1.3 6.4C0.8 6 0 6.3 0 7V69.7C0 70.4 0.8 70.7 1.3 70.3L2.9 69.1C3 68.9 3.1 68.7 3.1 68.4V68.4ZM12.1 61.3V15.1C12.1 14.9 12 14.6 11.8 14.5L10.2 13.3C9.7 12.9 8.9 13.3 8.9 13.9V62.6C8.9 63.3 9.7 63.6 10.2 63.2L11.8 62C12 61.8 12.1 61.6 12.1 61.3ZM21.1 54.2V21.9C21.1 21.7 21 21.4 20.8 21.3L19.2 20.1C18.7 19.7 17.9 20.1 17.9 20.7V55.4C17.9 56.1 18.7 56.4 19.2 56L20.8 54.8C20.9 54.7 21.1 54.4 21.1 54.2ZM30 47.1V28.8C30 28.6 29.9 28.3 29.7 28.2L28.1 27C27.6 26.6 26.8 27 26.8 27.6V48.3C26.8 49 27.6 49.3 28.1 48.9L29.7 47.7C29.9 47.5 30 47.3 30 47.1V47.1ZM39 39.9V35.6C39 35.4 38.9 35.1 38.7 35L37.1 33.8C36.6 33.4 35.8 33.8 35.8 34.4V41.1C35.8 41.8 36.6 42.1 37.1 41.7L38.7 40.5C38.9 40.4 39 40.2 39 39.9Z" fill="white"/>
    <path d="M46.5 33.3L5.2 0.2C5.1 0.1 4.9 0 4.7 0H2.2C1.5 0 1.1 0.9 1.7 1.4L45.5 36.5C46 36.9 46.8 36.5 46.8 35.9V33.9C46.8 33.7 46.7 33.4 46.5 33.3ZM46.5 24.1L16.6 0.2C16.5 0.1 16.3 0 16.1 0H13.6C12.8 0 12.5 0.9 13.1 1.4L45.4 27.3C45.9 27.7 46.7 27.3 46.7 26.7V24.7C46.8 24.4 46.7 24.2 46.5 24.1V24.1ZM46.5 14L29.3 0.2C29.1 0.1 29 0 28.8 0H26.3C25.5 0 25.2 0.9 25.8 1.4L45.5 17.2C46 17.6 46.8 17.2 46.8 16.6V14.6C46.8 14.3 46.7 14.1 46.5 14V14ZM46.5 4.3L41.4 0.2C41.2 0.1 41 0 40.9 0H38.4C37.6 0 37.3 0.9 37.9 1.4L45.5 7.5C46 7.9 46.8 7.5 46.8 6.9V4.9C46.8 4.7 46.7 4.4 46.5 4.3V4.3Z" fill="white"/>
    <path d="M46.5 42.3L5.2 75.4C5.1 75.5 4.9 75.6 4.7 75.6H2.2C1.4 75.6 1.1 74.7 1.7 74.2L45.5 39.1C46 38.7 46.8 39.1 46.8 39.7V41.7C46.8 41.9 46.7 42.1 46.5 42.3V42.3ZM46.5 51.5L16.6 75.4C16.5 75.5 16.3 75.6 16.1 75.6H13.6C12.8 75.6 12.5 74.7 13.1 74.2L45.4 48.3C45.9 47.9 46.7 48.3 46.7 48.9V50.9C46.8 51.1 46.7 51.4 46.5 51.5V51.5ZM46.5 61.6L29.3 75.4C29.2 75.5 29 75.6 28.8 75.6H26.3C25.5 75.6 25.2 74.7 25.8 74.2L45.5 58.4C46 58 46.8 58.4 46.8 59V61C46.8 61.2 46.7 61.5 46.5 61.6V61.6ZM46.5 71.3L41.4 75.4C41.3 75.5 41.1 75.6 40.9 75.6H38.4C37.6 75.6 37.3 74.7 37.9 74.2L45.5 68.1C46 67.7 46.8 68.1 46.8 68.7V70.7C46.8 70.9 46.7 71.1 46.5 71.3V71.3Z" fill="white"/>
    <path d="M102.4 68.4V8.2C102.4 8 102.5 7.7 102.7 7.6L104.3 6.4C104.8 6 105.6 6.4 105.6 7V69.7C105.6 70.4 104.8 70.7 104.3 70.3L102.7 69.1C102.6 68.9 102.4 68.7 102.4 68.4V68.4ZM93.5 61.3V15.1C93.5 14.9 93.6 14.6 93.8 14.5L95.4 13.3C95.9 12.9 96.7 13.3 96.7 13.9V62.6C96.7 63.3 95.9 63.6 95.4 63.2L93.8 62C93.6 61.8 93.5 61.6 93.5 61.3ZM84.5 54.2V21.9C84.5 21.7 84.6 21.4 84.8 21.3L86.4 20.1C86.9 19.7 87.7 20.1 87.7 20.7V55.4C87.7 56.1 86.9 56.4 86.4 56L84.8 54.8C84.6 54.7 84.5 54.4 84.5 54.2ZM75.6 47.1V28.8C75.6 28.6 75.7 28.3 75.9 28.2L77.5 27C78 26.6 78.8 27 78.8 27.6V48.3C78.8 49 78 49.3 77.5 48.9L75.9 47.7C75.7 47.5 75.6 47.3 75.6 47.1V47.1ZM66.6 39.9V35.6C66.6 35.4 66.7 35.1 66.9 35L68.5 33.8C69 33.4 69.8 33.8 69.8 34.4V41.1C69.8 41.8 69 42.1 68.5 41.7L66.9 40.5C66.7 40.4 66.6 40.2 66.6 39.9Z" fill="white"/>
    <path d="M59.1 33.3L100.4 0.2C100.5 0.1 100.7 0 100.9 0H103.4C104.2 0 104.5 0.9 103.9 1.4L60.1 36.5C59.6 36.9 58.8 36.5 58.8 35.9V33.9C58.8 33.7 58.9 33.4 59.1 33.3ZM59.1 24.1L89 0.2C89.1 0.1 89.3 0 89.4 0H91.9C92.7 0 93 0.9 92.4 1.4L60.1 27.3C59.6 27.7 58.8 27.3 58.8 26.7V24.7C58.8 24.4 58.9 24.2 59.1 24.1V24.1ZM59.1 14L76.3 0.2C76.5 0.1 76.6 0 76.8 0H79.3C80.1 0 80.4 0.9 79.8 1.4L60.1 17.2C59.6 17.6 58.8 17.2 58.8 16.6V14.6C58.8 14.3 58.9 14.1 59.1 14V14ZM59.1 4.3L64.2 0.2C64.4 0.1 64.5 0 64.7 0H67.2C68 0 68.3 0.9 67.7 1.4L60.1 7.5C59.6 7.9 58.8 7.5 58.8 6.9V4.9C58.8 4.7 58.9 4.4 59.1 4.3V4.3Z" fill="white"/>
    <path d="M59.1 42.3L100.4 75.4C100.5 75.5 100.7 75.6 100.9 75.6H103.4C104.2 75.6 104.5 74.7 103.9 74.2L60.1 39.1C59.6 38.7 58.8 39.1 58.8 39.7V41.7C58.8 41.9 58.9 42.1 59.1 42.3V42.3ZM59.1 51.5L89 75.4C89.1 75.5 89.3 75.6 89.5 75.6H92C92.8 75.6 93.1 74.7 92.5 74.2L60.1 48.3C59.6 47.9 58.8 48.3 58.8 48.9V50.9C58.8 51.1 58.9 51.4 59.1 51.5ZM59.1 61.6L76.3 75.4C76.4 75.5 76.6 75.6 76.8 75.6H79.3C80.1 75.6 80.4 74.7 79.8 74.2L60.1 58.4C59.6 58 58.8 58.4 58.8 59V61C58.8 61.2 58.9 61.5 59.1 61.6ZM59.1 71.3L64.2 75.4C64.3 75.5 64.5 75.6 64.7 75.6H67.2C68 75.6 68.3 74.7 67.7 74.2L60.1 68.1C59.6 67.7 58.8 68.1 58.8 68.7V70.7C58.8 70.9 58.9 71.1 59.1 71.3V71.3Z" fill="white"/>
  </g>

  <g>
    <path class="hover" fill-rule="evenodd" clip-rule="evenodd" d="M130.4 24.4C130.4 24.1 130.7 23.7 131 23.7H139C145.7 23.7 151.2 29.2 151.2 35.9C151.2 42.7 145.7 48.1 139 48.1H131C130.7 48.1 130.4 47.8 130.4 47.4V24.4ZM147.3 36C147.3 41.1 143.7 44.9 138.6 44.9H133.9V27.1H138.6C143.7 27.1 147.3 30.9 147.3 36Z" fill="white"/>
    <path class="hover" fill-rule="evenodd" clip-rule="evenodd" d="M162.6 31.7C166.8 31.7 170 34.8 170 39.1C170 39.4 170 39.9 169.9 40.2C169.9 40.6 169.5 40.9 169.2 40.9H158C158 43.1 160 45.3 162.8 45.3C164.6 45.3 165.8 44.6 166.7 43.9C167 43.7 167.4 43.6 167.6 44L168.5 45.5C168.8 45.8 168.9 46.2 168.4 46.6C167.2 47.6 165.1 48.6 162.4 48.6C157.5 48.6 154.3 44.8 154.3 40.2C154.6 35.6 157.8 31.7 162.6 31.7ZM162.5 34.6C164.9 34.6 166.4 36.3 166.5 38.3H158.2C158.4 36.2 160 34.6 162.5 34.6Z" fill="white"/>
    <path class="hover" d="M172.8 46.1C172.6 46.4 172.9 46.7 173.1 46.9C174 47.5 175.9 48.6 178.1 48.5C181.6 48.5 183.8 46.3 183.8 43.8C183.8 40.8 181.6 39.8 178.6 38.5C177 37.8 175.8 37.1 175.8 36.1C175.8 35.4 176.5 34.7 177.9 34.7C179.2 34.7 180.3 35 181.4 35.5C181.7 35.7 182.2 35.7 182.4 35.2L183 34.1C183.3 33.7 183.1 33.2 182.7 32.9C181.9 32.4 180.2 31.7 178 31.7C174.1 31.7 172.7 34.1 172.7 36.1C172.7 38.8 174.6 40.1 177.1 41.2C179.4 42.2 180.6 42.9 180.6 44C180.6 44.9 179.9 45.6 178.5 45.6C176.6 45.6 175.4 44.9 174.5 44.4C174.1 44.1 173.7 44.3 173.5 44.6L172.8 46.1Z" fill="white"/>
    <g class="hover">
      <path d="M189.8 23.9C188.5 23.9 187.5 25 187.5 26.3C187.5 27.6 188.5 28.6 189.8 28.6C191.2 28.6 192.2 27.6 192.2 26.3C192.2 24.9 191.1 23.9 189.8 23.9Z" fill="white"/>
      <path d="M188.8 32C188.3 32 188 32.4 188 32.8V47.4C188 47.9 188.4 48.2 188.8 48.2H190.8C191.2 48.2 191.6 47.8 191.6 47.4V32.8C191.6 32.4 191.2 32 190.8 32H188.8Z" fill="white"/>
    </g>
    <path class="hover" fill-rule="evenodd" clip-rule="evenodd" d="M211 48.3C211 53.3 207.8 55.8 203.5 55.8C200.8 55.8 198.6 54.5 197.9 53.8C197.6 53.6 197.6 53.1 197.7 52.9L198.5 51.4C198.7 51 199.2 50.8 199.6 51.2C200.2 51.7 201.5 52.7 203.4 52.7C205.5 52.7 207.4 51.7 207.4 48.4V47.5C207.1 47.7 205.4 48.6 203.3 48.6C198.9 48.6 195.5 44.9 195.5 40.2C195.5 35.6 198.7 31.8 203.1 31.8C206.1 31.8 207.9 33.4 208.2 33.7L208.6 32.7C208.7 32.4 208.8 32.1 209.2 32.1H210.1C210.5 32.1 210.9 32.5 210.9 32.9V48.3H211ZM207.5 43.9C207.5 43.9 205.9 45.2 203.8 45.2C201.2 45.2 199.1 42.9 199 40C199 37.3 200.8 34.9 203.6 34.9C205.8 34.9 207.2 36.6 207.5 37.2V43.9Z" fill="white"/>
    <path class="hover" d="M216.9 32C216.4 32 216.1 32.4 216.1 32.8H215.9V47.4C215.9 47.9 216.3 48.2 216.7 48.2H218.5C219.1 48.2 219.4 47.9 219.4 47.4V37.4C219.7 36.9 221.2 35.1 223.7 35.1C225.8 35.1 226.9 36.6 226.9 39.2V47.4C226.9 47.9 227.3 48.2 227.7 48.2H229.7C230.1 48.2 230.5 47.8 230.5 47.4V39.3C230.5 35.1 229.2 31.7 224.3 31.7C221.1 31.7 219.2 33.5 218.9 33.9L218.4 32.5C218.3 32.2 218 32 217.7 32H216.9Z" fill="white"/>
  </g>

  <g>
    <path class="hover" d="M245.4 23.8C244.9 23.8 244.6 24.1 244.6 24.6H244.8V47.4C244.8 47.8 245.1 48.2 245.6 48.2H247.6C248 48.2 248.4 47.9 248.4 47.4V36.6L258.5 48C258.5 48.1 258.8 48.2 259.1 48.2H261.9C262.6 48.2 262.8 47.3 262.5 47L251.7 35.4L261.8 25.2C262.3 24.6 261.9 23.9 261.3 23.9H258.7C258.4 23.9 258.1 24 258 24.2L248.2 34.3V24.6C248.2 24.2 247.9 23.8 247.4 23.8H245.4Z" fill="white"/>
    <path class="hover" fill-rule="evenodd" clip-rule="evenodd" d="M272.9 31.7C277.4 31.7 281.1 35.5 281.1 40.1C281.1 44.7 277.4 48.6 272.9 48.6C268.4 48.6 264.7 44.7 264.7 40.1C264.7 35.6 268.4 31.7 272.9 31.7ZM277.7 40C277.7 43 275.6 45.2 272.9 45.2C270.2 45.2 268.1 43 268.1 40C268.1 37.1 270.2 34.9 272.9 34.9C275.6 34.9 277.7 37.1 277.7 40Z" fill="white"/>
    <path class="hover" d="M286 23.7C285.5 23.7 285.2 24.1 285.2 24.5V47.4C285.2 47.9 285.6 48.2 286 48.2H288C288.4 48.2 288.8 47.8 288.8 47.4V24.5C288.8 24.1 288.4 23.7 288 23.7H286Z" fill="white"/>
    <path class="hover" d="M294.8 23.7C294.3 23.7 294 24.1 294 24.5V47.4C294 47.9 294.4 48.2 294.8 48.2H296.8C297.2 48.2 297.6 47.8 297.6 47.4V24.5C297.6 24.1 297.2 23.7 296.8 23.7H294.8Z" fill="white"/>
    <path class="hover" fill-rule="evenodd" clip-rule="evenodd" d="M309.7 31.7C313.9 31.7 317.1 34.8 317.1 39.1C317.1 39.4 317.1 39.9 317 40.2C317 40.6 316.6 40.9 316.3 40.9H305.2C305.2 43.1 307.2 45.3 310 45.3C311.8 45.3 313 44.6 313.9 43.9C314.2 43.7 314.6 43.6 314.8 44L315.7 45.5C316 45.8 316.1 46.2 315.6 46.6C314.4 47.6 312.3 48.6 309.6 48.6C304.7 48.6 301.5 44.8 301.5 40.2C301.7 35.6 304.8 31.7 309.7 31.7ZM309.6 34.6C312 34.6 313.5 36.3 313.6 38.3H305.3C305.5 36.2 307.1 34.6 309.6 34.6Z" fill="white"/>
    <path class="hover" d="M334 34.5C332.5 32.6 330.6 31.7 328.1 31.7C323.6 31.7 319.9 35.4 320 40C320 44.8 323.7 48.4 328.2 48.4C331 48.4 333.2 47.1 334.5 45.1C334.8 44.7 334.6 44.3 334.2 44L333.1 43.1C332.7 42.9 332.3 42.9 332 43.2C331.1 44 330.3 45.2 328.2 45.2C325.5 45.2 323.4 43 323.4 40.1C323.4 37.2 325.5 35 328.3 35C329.6 35 330.9 35.8 331.6 36.6C331.8 36.9 332.1 37.2 332.6 36.8L333.9 35.6C334.2 35.3 334.3 34.9 334 34.5Z" fill="white"/>
    <path class="hover" d="M337.5 35H339.2V43.5C339.2 46.3 340.1 48.3 343.3 48.3C345.3 48.3 347.1 47.6 347.8 47.2C348.2 47 348.4 46.7 348.2 46.3L347.6 44.7C347.5 44.4 347.2 44.1 346.7 44.4C346.1 44.8 345.1 45.2 344.1 45.2C343.3 45.2 342.8 45 342.8 43.6V35H347.1C347.6 35 347.9 34.6 347.9 34.2V32.8C347.9 32.3 347.5 32 347.1 32H342.8V27.5C342.8 27 342.5 26.7 342.1 26.7H340.1C339.6 26.7 339.3 27.1 339.3 27.5V32H337.5C337 32 336.7 32.3 336.7 32.8V34.2C336.7 34.6 337 35 337.5 35Z" fill="white"/>
    <g class="hover">
      <path d="M353.3 23.9C352 23.9 351 25 351 26.3C351 27.6 352.1 28.6 353.3 28.6C354.7 28.6 355.7 27.6 355.7 26.3C355.7 24.9 354.6 23.9 353.3 23.9Z" fill="white"/>
      <path d="M352.4 32C351.9 32 351.6 32.4 351.6 32.8V47.4C351.6 47.9 352 48.2 352.4 48.2H354.4C354.8 48.2 355.2 47.8 355.2 47.4V32.8C355.2 32.4 354.8 32 354.4 32H352.4Z" fill="white"/>
    </g>
    <path class="hover" d="M359 32.1C358.4 32.1 358.1 32.5 358.4 33L365.4 48.2C365.5 48.4 365.8 48.6 366.1 48.6H366.3C366.7 48.6 366.9 48.4 367 48.2L374 33C374.3 32.5 374 32.1 373.4 32.1H371.8C371.3 32.1 370.9 32.1 370.7 32.6L366.2 42.5H366.1L361.8 32.6C361.7 32.3 361.5 32.1 361.1 32.1H359Z" fill="white"/>
    <path class="hover" d="M384.3 31.7C388.5 31.7 391.7 34.8 391.7 39.1C391.7 39.4 391.7 39.9 391.6 40.2C391.6 40.6 391.2 40.9 390.9 40.9H379.8C379.8 43.1 381.8 45.3 384.6 45.3C386.4 45.3 387.6 44.6 388.5 43.9C388.8 43.7 389.2 43.6 389.4 44L390.3 45.5C390.6 45.8 390.7 46.2 390.2 46.6C389 47.6 386.9 48.6 384.2 48.6C379.3 48.6 376.1 44.8 376.1 40.2C376.2 35.6 379.4 31.7 384.3 31.7ZM388.2 38.3C388.1 36.3 386.6 34.6 384.2 34.6C381.7 34.6 380.1 36.2 379.9 38.3H388.2Z" fill="white"/>
  </g>
</svg>
